app/component-library/components/Icons/Icon/assets/wallet-card.svg

<svg width="24" height="24" viewBox="0 0 24 24" fill="none" xmlns="http://www.w3.org/2000/svg">
<path d="M12.221 2.20983L9.81096 7.81983H7.40096C7.00096 7.81983 6.61096 7.84983 6.23096 7.92983L7.23096 5.52983L7.27096 5.43983L7.33096 5.27983C7.36096 5.20983 7.38096 5.14983 7.41096 5.09983C8.57096 2.40983 9.87096 1.56983 12.221 2.20983Z" fill="currentColor"/>
<path d="M19.0109 8.09002L18.9909 8.08002C18.3909 7.91002 17.7809 7.82002 17.1609 7.82002H10.9009L13.1509 2.59002L13.1809 2.52002C13.3209 2.57002 13.4709 2.64002 13.6209 2.69002L15.8309 3.62002C17.0609 4.13002 17.9209 4.66002 18.4509 5.30002C18.5409 5.42002 18.6209 5.53002 18.7009 5.66002C18.7909 5.80002 18.8609 5.94002 18.9009 6.09002C18.9409 6.18002 18.9709 6.26002 18.9909 6.35002C19.1409 6.86002 19.1509 7.44002 19.0109 8.09002Z" fill="currentColor"/>
<path d="M12.8003 17.6601H13.0503C13.3503 17.6601 13.6003 17.3901 13.6003 17.0601C13.6003 16.6401 13.4803 16.5801 13.2203 16.4801L12.8003 16.3301V17.6601Z" fill="currentColor"/>
<path d="M18.571 9.51982C18.121 9.38982 17.651 9.31982 17.161 9.31982H7.401C6.721 9.31982 6.081 9.44982 5.481 9.70982C3.741 10.4598 2.521 12.1898 2.521 14.1998V16.1498C2.521 16.3898 2.541 16.6198 2.571 16.8598C2.791 20.0398 4.491 21.7398 7.671 21.9498C7.901 21.9798 8.131 21.9998 8.381 21.9998H16.181C19.881 21.9998 21.831 20.2398 22.021 16.7398C22.031 16.5498 22.041 16.3498 22.041 16.1498V14.1998C22.041 11.9898 20.571 10.1298 18.571 9.51982ZM13.561 15.4998C14.021 15.6598 14.641 15.9998 14.641 17.0598C14.641 17.9698 13.931 18.6998 13.051 18.6998H12.801V18.9198C12.801 19.2098 12.571 19.4398 12.281 19.4398C11.991 19.4398 11.761 19.2098 11.761 18.9198V18.6998H11.671C10.711 18.6998 9.921 17.8898 9.921 16.8898C9.921 16.5998 10.151 16.3698 10.441 16.3698C10.731 16.3698 10.961 16.5998 10.961 16.8898C10.961 17.3098 11.281 17.6598 11.671 17.6598H11.761V15.9698L11.001 15.6998C10.541 15.5398 9.921 15.1998 9.921 14.1398C9.921 13.2298 10.631 12.4998 11.511 12.4998H11.761V12.2798C11.761 11.9898 11.991 11.7598 12.281 11.7598C12.571 11.7598 12.801 11.9898 12.801 12.2798V12.4998H12.891C13.851 12.4998 14.641 13.3098 14.641 14.3098C14.641 14.5998 14.411 14.8298 14.121 14.8298C13.831 14.8298 13.601 14.5998 13.601 14.3098C13.601 13.8898 13.281 13.5398 12.891 13.5398H12.801V15.2298L13.561 15.4998Z" fill="currentColor"/>
<path d="M10.9604 14.14C10.9604 14.56 11.0804 14.62 11.3404 14.72L11.7604 14.87V13.54H11.5104C11.2004 13.54 10.9604 13.81 10.9604 14.14Z" fill="currentColor"/>
</svg>

<svg xmlns="http://www.w3.org/2000/svg" width="24" height="24" viewBox="0 0 24 24" fill="none"><path fill="currentColor" d="m12.221 2.21-2.41 5.61h-2.41c-.4 0-.79.03-1.17.11l1-2.4.04-.09.06-.16c.03-.07.05-.13.08-.18 1.16-2.69 2.46-3.53 4.81-2.89ZM19.01 8.09l-.02-.01c-.6-.17-1.21-.26-1.83-.26H10.9l2.25-5.23.03-.07c.14.05.29.12.44.17l2.21.93c1.23.51 2.09 1.04 2.62 1.68.09.12.17.23.25.36.09.14.16.28.2.43.04.09.07.17.09.26.15.51.16 1.09.02 1.74ZM12.8 17.66h.25c.3 0 .55-.27.55-.6 0-.42-.12-.48-.38-.58l-.42-.15v1.33Z"/><path fill="currentColor" d="M18.571 9.52c-.45-.13-.92-.2-1.41-.2h-9.76c-.68 0-1.32.13-1.92.39a4.894 4.894 0 0 0-2.96 4.49v1.95c0 .24.02.47.05.71.22 3.18 1.92 4.88 5.1 5.09.23.03.46.05.71.05h7.8c3.7 0 5.65-1.76 5.84-5.26.01-.19.02-.39.02-.59V14.2a4.9 4.9 0 0 0-3.47-4.68Zm-5.01 5.98c.46.16 1.08.5 1.08 1.56 0 .91-.71 1.64-1.59 1.64h-.25v.22c0 .29-.23.52-.52.52-.29 0-.52-.23-.52-.52v-.22h-.09c-.96 0-1.75-.81-1.75-1.81 0-.29.23-.52.52-.52.29 0 .52.23.52.52 0 .42.32.77.71.77h.09v-1.69l-.76-.27c-.46-.16-1.08-.5-1.08-1.56 0-.91.71-1.64 1.59-1.64h.25v-.22c0-.29.23-.52.52-.52.29 0 .52.23.52.52v.22h.09c.96 0 1.75.81 1.75 1.81 0 .29-.23.52-.52.52-.29 0-.52-.23-.52-.52 0-.42-.32-.77-.71-.77h-.09v1.69l.76.27Z"/><path fill="currentColor" d="M10.96 14.14c0 .42.12.48.38.58l.42.15v-1.33h-.25c-.31 0-.55.27-.55.6Z"/></svg>
